X:516
T: VIOLA BASS UND GEIGEN
N: E1790
O: Europa, Mitteleuropa, Deutschland, Heidelberg
R: Scherz - Lied; Studenten -, Abschieds - Lied
M: 4/4
L: 1/16
K: C
G,4 | C4B,2A,2G,4A,4 | G,4F,4E,4
G,4 | A,3G,A,3B,C3B,C3A, | G,4F,4E,4
E4 | E2D2F2D2C4B,4 | C4z8
C2B,2 | A,3F,F,2F,2F,4D2C2 | B,3G,G,2G,2G,4
F4 | E2D2F2D2C4B,4 | C4z8

@@@ Tune index: 5200
